X:932
T:Reel 932
M:2/4
K:Dmaj
L:1/8
D,2 F,A,DF AF |GB AFEF DC |A,D DCDE FG |AF dFAF EC |D2 DCDE FD |EF GABF EF |DE DB,A,B, DE |FA EFD2 D2 |||FA ABcd AG |FA ABd2 cB |AF dFBG ED |CA, B,CD2 z2|FA AcBA GF |GA BcdB AG |FA GFGA BG |AF DFE2 D2 |
